X: 1
T:Green Mountain, The
M:C|
R:Reel
Z:Transcribed by Lars Johannesson
Q:1/4=200
K:D
dB|AF~F2 AFEF|DF~F2 ABde|~f3d efeB|Adfd efdB|\
AF~F2 AFEF|DF~F2 ABde|~f3d efdB|1 AFEF D2:|2 AFEF D4|:\
fa~a2 bafe|fzaf efde|~f3d efdB|Adfd efde|\
fa~a2 bafe|fzaf efde|~f3d efdB|AFEF D4:|
